app/img/svg/htmlacademy.svg

<svg xmlns="http://www.w3.org/2000/svg" width="309" height="391"><defs><clipPath id="cp1"><path d="M0 0h309v391H0z"/></clipPath></defs><style></style><g id="Page 1" clip-path="url(#cp1)"><path id="Path 1" fill-rule="evenodd" d="M307.77 17.43v281.14l-153.39 91.27L1 298.57V17.43L154.38 1.35l1.61.17 151.78 15.91zM153.63 76.97v-.01L21.35 156.47l132.09 78.52 22.58-13.56-22.16-13.06.13-13.9 33.78 19.91.26-.16 10.55-7.06-44.72-26.59.13-13.9 56.66 33.7 9.75-5.74 1.48-.87.61-.36-68.63-40.81.13-13.91 80.3 47.77 16.83-9.92 36.48-21.49-133.97-78.07zm134.07 93.02l-41.13 24.56v45.41l.12-.06v13.96l-92.31 55.23-91.42-54.95.13-13.9 91.4 54.37-.23-14.7-91.43-54.95.14-13.9 91.06 54.2-.22-14.32-132.75-79.01v115.23l133.32 79.33 133.32-79.33V169.99zm0-134.48L154.39 21.53 21.06 35.51v105.46l132.57-78.93v-.02l.02.01.01-.01v.02l134.04 79.02V35.51z" stroke="#231f20" stroke-width="2"/></g></svg>

<svg xmlns="http://www.w3.org/2000/svg" viewBox="0 0 309 391" width="309" height="391">
	<defs>
		<clipPath clipPathUnits="userSpaceOnUse" id="cp1">
			<path d="M0 0L309 0L309 391L0 391Z" />
		</clipPath>
	</defs>
	<style>
		tspan { white-space:pre }
		.shp0 { fill: #000000;stroke: #231f20;stroke-width: 2 } 
	</style>
	<g id="Page 1" clip-path="url(#cp1)">
		<path id="Path 1" fill-rule="evenodd" class="shp0" d="M307.77 17.43L307.77 298.57L154.38 389.84L1 298.57L1 17.43L154.38 1.35L155.99 1.52L307.77 17.43ZM153.63 76.97L153.63 76.96L21.35 156.47L153.44 234.99L176.02 221.43L153.86 208.37L153.99 194.47L187.77 214.38L188.03 214.22L198.58 207.16L153.86 180.57L153.99 166.67L210.65 200.37L220.4 194.63L221.88 193.76L222.49 193.4L153.86 152.59L153.99 138.68L234.29 186.45L251.12 176.53L287.6 155.04L153.63 76.97ZM287.7 169.99L246.57 194.55L246.57 239.96L246.69 239.9L246.69 253.86L154.38 309.09L62.96 254.14L63.09 240.24L154.49 294.61L154.26 279.91L62.83 224.96L62.97 211.06L154.03 265.26L153.81 250.94L21.06 171.93L21.06 287.16L154.38 366.49L287.7 287.16L287.7 169.99ZM287.7 35.51L154.39 21.53L21.06 35.51L21.06 140.97L153.63 62.04L153.63 62.02L153.65 62.03L153.66 62.02L153.66 62.04L287.7 141.06L287.7 35.51Z" />
	</g>
</svg>
